!!!COM: Macque, Giovanni de
!!!CDT: ~1550-1614/09
!!!PTL: Il secondo libro de madrigali a cinque voci
!!!PPP: Venice
!!!PPR: Vincenzi & Amadino
!!!PDT: 1587
!!!RISM: M 89
!!!rime: 560
!!!OTL: Gi&agrave; non son io contento
!!!OTL:	Mentre mia stella miri
!!!OTL-rime:	 Tarquinia se rimiri
!!!AGN: Madrigal
!!!SCT: Trm0560f
!!!SCA: Trm0560f
!!!voices: 5
**kern	**text	**kern	**text	**kern	**text	**kern	**text	**kern	**text
*part5	*part5	*part4	*part4	*part3	*part3	*part2	*part2	*part1	*part1
*staff5	*staff5	*staff4	*staff4	*staff3	*staff3	*staff2	*staff2	*staff1	*staff1
*I"Basso	*	*I"Tenore	*	*I"Alto	*	*I"Quinto	*	*I"Canto	*
*I'B	*	*I'T	*	*I'A	*	*I'V	*	*I'C	*
*oclefF4	*	*oclefC3	*	*oclefC2	*	*oclefG2	*	*oclefG2	*

*clefF4	*	*clefGv2	*	*clefG2	*	*clefG2	*	*clefG2	*
*	*	*Trd0c0	*	*	*	*	*	*	*
*k[]	*	*k[]	*	*k[]	*	*k[]	*	*k[]	*
*M4/2	*	*M4/2	*	*M4/2	*	*M4/2	*	*M4/2	*
=1	=1	=1	=1	=1	=1	=1	=1	=1	=1
0r	.	0c	Men-	0g	Men-	0cc	Men-	0ee	Men-
=2	=2	=2	=2	=2	=2	=2	=2	=2	=2
0r	.	2G	-tre,	1g	-tre,	1b	-tre,	1dd	-tre,
.	.	2g	mia	.	.	.	.	.	.
.	.	4f	stel-	2r	.	2dd	mia	1r	.
.	.	4f	-la,	.	.	.	.	.	.
.	.	2e	mi-	[2g	mia	4cc	stel-	.	.
.	.	.	.	.	.	4cc	-la,	.	.
=3	=3	=3	=3	=3	=3	=3	=3	=3	=3
0r	.	1d	-ri,	2g]	.	2b	mi-	2r	.
.	.	.	.	2.f	stel-	2a	-ri,	2dd	mia
.	.	2r	.	.	.	1r	.	2.cc	stel-
.	.	.	.	4f	-la,	.	.	.	.
.	.	[2g	mia	2e	mi-	.	.	.	.
.	.	.	.	.	.	.	.	4cc	-la,
=4	=4	=4	=4	=4	=4	=4	=4	=4	=4
0r	.	2g]	.	1d	-ri	2r	.	2b	mi-
.	.	4f	stel-	.	.	2dd	mia	4a	-ri,
.	.	4f	-la,	.	.	.	.	4a	mia
.	.	4.e	mi-	2r	.	4cc	stel-	4ee	stel-
.	.	.	.	.	.	4cc	-la,	4ee	-la,
.	.	8f	.	.	.	.	.	.	.
.	.	2g	.	4r	.	2b	mi-	2dd	mi-
.	.	.	.	4g	I	.	.	.	.
=5	=5	=5	=5	=5	=5	=5	=5	=5	=5
0r	.	1c	-ri	4.g	bei	4cc	-ri	2ee	-ri
.	.	.	.	.	.	4gg	I	.	.
.	.	.	.	8f	ce-	.	.	.	.
.	.	.	.	4.e	-le-	4.gg	bei	4r	.
.	.	.	.	.	.	.	.	4gg	I
.	.	.	.	8d	-sti	8ff	ce-	.	.
.	.	4r	.	8cL	gi-	4.ee	-le-	4.gg	bei
.	.	.	.	8B	.	.	.	.	.
.	.	4g	I	8c	.	.	.	.	.
.	.	.	.	8dJ	.	8dd	-sti	8ff	ce-
.	.	4.g	bei	8eL	.	8ccL	gi-	4.ee	-le-
.	.	.	.	8d	.	8b	.	.	.
.	.	.	.	8e	.	8cc	.	.	.
.	.	8f	ce-	8fJ	.	8ddJ	.	8dd	-sti
=6	=6	=6	=6	=6	=6	=6	=6	=6	=6
0r	.	4.e	-le-	4.g	.	8eeL	.	8ccL	gi-
.	.	.	.	.	.	8dd	.	8b	.
.	.	.	.	.	.	8ee	.	8cc	.
.	.	8d	-sti	8f	.	8ffJ	.	8ddJ	.
.	.	8cL	gi-	4.e	.	4.gg	.	8eeL	.
.	.	8B	.	.	.	.	.	8dd	.
.	.	8c	.	.	.	.	.	8ee	.
.	.	8dJ	.	8d	.	8ff	.	8ffJ	.
.	.	8eL	.	4.c	.	4.ee	.	4.gg	.
.	.	8d	.	.	.	.	.	.	.
.	.	8e	.	.	.	.	.	.	.
.	.	8fJ	.	8d	.	8dd	.	8ff	.
.	.	2g	.	4.e	.	[2cc	.	2ee	.
.	.	.	.	8f	.	.	.	.	.
=7	=7	=7	=7	=7	=7	=7	=7	=7	=7
2r	.	1G	-ri,	1g	.	4cc]	.	1dd	-ri,
.	.	.	.	.	.	8bL	.	.	.
.	.	.	.	.	.	8aJ	.	.	.
2G	Il	.	.	.	.	2b	.	.	.
2.c	ciel	1r	.	4g	-ri,	4cc	-ri,	4r	.
.	.	.	.	4g	Il	4ee	Il	4cc	Il
.	.	.	.	4cc	ciel	4gg	ciel	4ee	ciel
4c	es-	.	.	4g	es-	4ee	es-	4cc	es-
=8	=8	=8	=8	=8	=8	=8	=8	=8	=8
4d	-ser	0r	.	4f#X	-ser	4dd	-ser	4a	-ser
4e	vor-	.	.	4g	vor-	4cc#X	vor-	4g	vor-
2d	-re-	.	.	2f#X	-re-	2dd	-re-	2a	-re-
1G	-i	.	.	1g	-i	4dd	-i	2b	-i
.	.	.	.	.	.	4dd	Per-	.	.
.	.	.	.	.	.	2b	-ché	4r	.
.	.	.	.	.	.	.	.	4dd	Per-
=9	=9	=9	=9	=9	=9	=9	=9	=9	=9
1r	.	2r	.	4r	.	1r	.	1b	-ché,
.	.	.	.	4g	Per-	.	.	.	.
.	.	4r	.	2e	-ché	.	.	.	.
.	.	4g	Per-	.	.	.	.	.	.
4r	.	1e	-ché,	4r	.	2ee	tu	2r	.
4c	Per-	.	.	4cc	tu	.	.	.	.
2A	-ché	.	.	8cc	ri-	8ee	ri-	4r	.
.	.	.	.	8b	-vol-	8dd	-vol-	.	.
.	.	.	.	8a	-ges-	8cc	-ges-	4cc	Per-
.	.	.	.	8b	-si	8dd	-si	.	.
=10	=10	=10	=10	=10	=10	=10	=10	=10	=10
4r	.	4r	.	2cc	Fi-	2ee	Fi-	4a	-ché
4c	tu	4g	Per-	.	.	.	.	4ee	tu
8c	ri-	4e	-ché	4g	-so,	2cc	-so,	8ee	ri-
8d	-vol-	.	.	.	.	.	.	8ff	-vol-
8e	-ges-	4e	tu	4g	tu	.	.	8gg	-ges-
8d	-si	.	.	.	.	.	.	8ff	-si
2c	Fi-	8e	ri-	8g	ri-	4r	.	2ee	Fi
.	.	8d	-vol-	8f	-vol-	.	.	.	.
.	.	8c	-ges-	8e	-ges-	4gg	tu	.	.
.	.	8d	-si	8f	-si	.	.	.	.
4c	-so,	2e	Fi-	2g	Fi-	8gg	ri-	4ee	so,
.	.	.	.	.	.	8ff	-vol-	.	.
4c	tu	.	.	.	.	8ee	-ges-	4ee	tu
.	.	.	.	.	.	8ff	-si	.	.
=11	=11	=11	=11	=11	=11	=11	=11	=11	=11
8c	ri-	1e	-so	0g	-so	1gg	Fi-	8ee	ri-
8d	-vol-	.	.	.	.	.	.	8ff	-vol-
8e	-ges-	.	.	.	.	.	.	8gg	-ges-
8d	-si	.	.	.	.	.	.	8ff	-si
2c	Fi-	.	.	.	.	.	.	2ee	Fi-
1c	-so	1r	.	.	.	2cc	-so	2ee	-so
.	.	.	.	.	.	2ee	ne	4r	.
.	.	.	.	.	.	.	.	4cc	ne
=12	=12	=12	=12	=12	=12	=12	=12	=12	=12
1r	.	1r	.	0r	.	4dd	lu-	4b	lu-
.	.	.	.	.	.	4cc	-mi	4a	-mi
.	.	.	.	.	.	2b	mie-	2g#X	mie-
2r	.	2r	.	.	.	2a	-i	2a	-i
2A	Le	2e	Le	.	.	2cc#X	Le	2a	Le
=13	=13	=13	=13	=13	=13	=13	=13	=13	=13
2d	tue	2f	tue	0r	.	2dd	tue	2a	tue
2.B-X	dol-	2.f	dol-	.	.	2.dd	dol-	2.b-X	dol-
4B-	-ci	4f	-ci	.	.	4dd	-ci	4b-	-ci
2c	fa-	2e	fa-	.	.	2cc	fa-	2g	fa-
=14	=14	=14	=14	=14	=14	=14	=14	=14	=14
1F	-vil-	1f	-vil-	0r	.	1cc	-vil-	1a	-vil-
1G	-le,	1d	-le,	.	.	2b	-le,	4g	-le,
.	.	.	.	.	.	.	.	4dd	Per-
.	.	.	.	.	.	4r	.	2b	-ché
.	.	.	.	.	.	4dd	Per-	.	.
=15	=15	=15	=15	=15	=15	=15	=15	=15	=15
1r	.	2r	.	4r	.	1b	-ché,	1r	.
.	.	.	.	4g	Per-	.	.	.	.
.	.	4r	.	2e	-ché	.	.	.	.
.	.	4g	Per-	.	.	.	.	.	.
4r	.	2e	-ché,	4r	.	2r	.	2ee	tu
4c	Per-	.	.	4cc	tu	.	.	.	.
2A	-ché	2r	.	8cc	ri-	4r	.	8ee	ri-
.	.	.	.	8b	-vol-	.	.	8dd	-vol-
.	.	.	.	8a	-ges-	4cc	Per-	8cc	-ges-
.	.	.	.	8b	-si	.	.	8dd	-si
=16	=16	=16	=16	=16	=16	=16	=16	=16	=16
4r	.	4r	.	2cc	Fi-	4a	-ché	2ee	Fi-
4c	tu	4g	Per-	.	.	4ee	tu	.	.
8c	ri-	4e	-ché	4g	-so,	8ee	ri-	2cc	-so,
8d	-vol-	.	.	.	.	8ff	-vol-	.	.
8e	-ges-	4e	tu	4g	tu	8gg	-ges-	.	.
8d	-si	.	.	.	.	8ff	-si	.	.
2c	Fi-	8e	ri-	8g	ri-	2ee	Fi-	4r	.
.	.	8d	-vol-	8f	-vol-	.	.	.	.
.	.	8c	-ges-	8e	-ges-	.	.	4gg	tu
.	.	8d	-si	8f	-si	.	.	.	.
4c	-so,	2e	Fi-	2g	Fi-	4ee	-so,	8gg	ri-
.	.	.	.	.	.	.	.	8ff	-vol-
4c	tu	.	.	.	.	4ee	tu	8ee	-ges-
.	.	.	.	.	.	.	.	8ff	-si
=17	=17	=17	=17	=17	=17	=17	=17	=17	=17
8c	ri-	1e	-so	0g	-so	8ee	ri-	1gg	Fi-
8d	-vol-	.	.	.	.	8ff	-vol-	.	.
8e	-ges-	.	.	.	.	8gg	-ges-	.	.
8d	-si	.	.	.	.	8ff	-si	.	.
2c	Fi-	.	.	.	.	2ee	Fi-	.	.
1c	-so	1r	.	.	.	2ee	-so	2cc	-so
.	.	.	.	.	.	4r	.	2ee	ne
.	.	.	.	.	.	4cc	ne	.	.
=18	=18	=18	=18	=18	=18	=18	=18	=18	=18
1r	.	0r	.	1r	.	4b	lu-	4dd	lu-
.	.	.	.	.	.	4a	-mi	4cc	-mi
.	.	.	.	.	.	2g#X	mie-	2b	mie-
2r	.	.	.	2r	.	2.a	-i	2a	-i
2A	Le	.	.	2e	Le	.	.	2cc#X	Le
.	.	.	.	.	.	4a	Le	.	.
=19	=19	=19	=19	=19	=19	=19	=19	=19	=19
2d	tue	0r	.	2f	tue	2a	tue	2dd	tue
2.B-X	dol-	.	.	2f	dol-	2.b-X	dol-	2.dd	dol-
.	.	.	.	4f	-ci	.	.	.	.
4B-	-ci	.	.	4d	fa-	4b-	-ci	4dd	-ci
2F	fa-	.	.	[2f	-vil-	2a	fa-	2cc	fa-
=20	=20	=20	=20	=20	=20	=20	=20	=20	=20
1c	-vil-	1r	.	4f]	.	1g	-vil-	1cc	-vil-
.	.	.	.	8e	.	.	.	.	.
.	.	.	.	8d	.	.	.	.	.
.	.	.	.	2e	.	.	.	.	.
2F	-le,	4r	.	2f	-le,	2a	-le,	4cc	-le,
.	.	2a	Io	.	.	.	.	2cc	Io
2r	.	.	.	2r	.	2r	.	.	.
.	.	8g#X	va-	.	.	.	.	8b	va-
.	.	8f#X	-gheg-	.	.	.	.	8a	-gheg-
=21	=21	=21	=21	=21	=21	=21	=21	=21	=21
0r	.	4g#X	-giar	2r	.	2r	.	4b	-giar
.	.	4a	po-	.	.	.	.	4cc	po-
.	.	2fni	-tes-	4r	.	4r	.	8aL	-tes-
.	.	.	.	.	.	.	.	8b	.
.	.	.	.	2a	Io	2cc	Io	8cc	.
.	.	.	.	.	.	.	.	8ddJ	.
.	.	2e	-si,	.	.	.	.	2ee	.
.	.	.	.	8g#X	va-	8b	va-	.	.
.	.	.	.	8f#X	-gheg-	8a	-gheg-	.	.
.	.	2r	.	4g#X	-giar	4b	-giar	2ee	-si,
.	.	.	.	4a	po-	4cc	po-	.	.
=22	=22	=22	=22	=22	=22	=22	=22	=22	=22
1r	.	4r	.	2fni	-tes-	8aL	-tes-	4r	.
.	.	.	.	.	.	8b	.	.	.
.	.	2a	Io	.	.	8cc	.	2cc	Io
.	.	.	.	.	.	8ddJ	.	.	.
.	.	.	.	2e	-si	2ee	.	.	.
.	.	8g#X	va-	.	.	.	.	8b	va-
.	.	8f#X	-gheg-	.	.	.	.	8a	-gheg-
2r	.	4g#X	-giar	1r	.	2ee	-si,	4b	-giar
.	.	4a	po-	.	.	.	.	4cc	po-
4r	.	2fni	-tes-	.	.	4r	.	8aL	-tes-
.	.	.	.	.	.	.	.	8b	.
[4A	Io	.	.	.	.	[4cc	Io	8cc	.
.	.	.	.	.	.	.	.	8ddJ	.
=23	=23	=23	=23	=23	=23	=23	=23	=23	=23
4A]	.	1e	-si	1r	.	4cc]	.	1ee	.
8G#X	va-	.	.	.	.	8b	va-	.	.
8F#X	-gheg-	.	.	.	.	8a	-gheg-	.	.
4G#X	-giar	.	.	.	.	4b	-giar	.	.
4A	po-	.	.	.	.	4cc	po-	.	.
2Fni	-tes-	2r	.	2r	.	2dd	-tes-	2a	-si
2E	-si	4r	.	4r	.	4ee	-si	4r	.
.	.	[4e	Mil-	[4g#X	Mil-	[4b	Mil-	[4ee	Mil-
=24	=24	=24	=24	=24	=24	=24	=24	=24	=24
0r	.	8e]	.	8g#]	.	8b]	.	8ee]	.
.	.	8e	-le	8g#Xi	-le	8b	-le	8ee	-le
.	.	4e	bel-	4g#	bel-	4b	bel-	4ee	bel-
.	.	4a	-lez-	4a	-lez-	4cc#X	-lez-	4ee	-lez-
.	.	4d	-ze	4a	-ze	4dd	-ze	4ff#X	-ze
.	.	2g	tue	2.b	tue	2dd	tue	2.gg	tue
.	.	2e	con	.	.	2g	con	.	.
.	.	.	.	4b	con	.	.	4ee	con
=25	=25	=25	=25	=25	=25	=25	=25	=25	=25
1r	.	4c	oc-	4cc	oc-	4g	oc-	4ee	oc-
.	.	4G	-chi	4b	-chi	4g	-chi	4dd	-chi
.	.	2d	mil-	2a	mil-	2f#X	mil-	2dd	mil-
4r	.	4G	-le,	4b	-le,	4g	-le,	4dd	-le,
4.G	Mil-	4.d	Mil-	4.b	Mil-	4.gg	Mil-	4.dd	<Mil-
8G	-le	8d	-le	8b	-le	8gg	-le	8dd	-le
4G	bel-	4d	bel-	4b	bel-	4gg	bel-	4dd	bel-
=26	=26	=26	=26	=26	=26	=26	=26	=26	=26
4d	-lez-	4d	-lez	4a	-lez	4ff#X	-lez-	4dd	-lez
4G	-ze	4d	ze	4b	ze	4gg	-ze	4dd	ze
2c	tue	2.e	tue	2.cc	tue	2.ee	tue	2g	tue
2A	con	.	.	.	.	.	.	2cc	con
.	.	4c	con	4a	con	4ee	con	.	.
4F	oc-	4c	oc-	4a	oc-	4ffni	oc-	4cc	oc-
4C	-chi	4c	-chi	4g	-chi	4ee	-chi	4cc	-chi
=27	=27	=27	=27	=27	=27	=27	=27	=27	=27
2G	mil-	2d	mil-	2g	mil-	2dd	mil-	2b	mil-
2C	-le,	2c	-le,	4g	-le,	2ee	-le,	4cc	-le,>
.	.	.	.	2cc	Io	.	.	2ee	Io
1r	.	1r	.	.	.	1r	.	.	.
.	.	.	.	8b	va-	.	.	8dd	va-
.	.	.	.	8a	-gheg-	.	.	8cc	-gheg-
.	.	.	.	4b	-giar	.	.	4dd	-giar
.	.	.	.	4cc	po-	.	.	4ee	po-
=28	=28	=28	=28	=28	=28	=28	=28	=28	=28
0r	.	4r	.	2a	-tes-	4r	.	4.cc	-tes-
.	.	2a	Io	.	.	2cc	Io	.	.
.	.	.	.	.	.	.	.	8dd	.
.	.	.	.	2e	-si,	.	.	2ee	.
.	.	8g#X	va-	.	.	8b	va-	.	.
.	.	8f#X	-gheg-	.	.	8a	-gheg-	.	.
.	.	4g#X	-giar	2r	.	4b	-giar	2ee	-si,
.	.	4a	po-	.	.	4cc	po-	.	.
.	.	2fni	-tes-	4r	.	8aL	-tes-	4r	.
.	.	.	.	.	.	8b	.	.	.
.	.	.	.	[4a	Io	8cc	.	[4cc	<Io
.	.	.	.	.	.	8ddJ	.	.	.
=29	=29	=29	=29	=29	=29	=29	=29	=29	=29
1r	.	2e	-si	4a]	.	2ee	.	4cc]	.
.	.	.	.	8g#X	va-	.	.	8b	va-
.	.	.	.	8f#X	-gheg-	.	.	8a	-gheg-
.	.	2r	.	4g#X	-giar	2ee	-si,	4b	-giar
.	.	.	.	4a	po-	.	.	4cc	po-
4r	.	1r	.	2fni	-tes-	4r	.	8aL	-tes-
.	.	.	.	.	.	.	.	8b	.
2A	Io	.	.	.	.	2cc	<Io	8cc	.
.	.	.	.	.	.	.	.	8ddJ	.
.	.	.	.	2e	-si	.	.	[2ee	.
8G#X	va-	.	.	.	.	8b	va-	.	.
8F#X	-gheg-	.	.	.	.	8a	-gheg-	.	.
=30	=30	=30	=30	=30	=30	=30	=30	=30	=30
4G#X	-giar	1r	.	1r	.	4b	-giar	2ee]	.
4A	po-	.	.	.	.	4cc	po-	.	.
2Fni	-tes-	.	.	.	.	2dd	-tes-	2a	-si>
1E	-si	4r	.	4r	.	4ee	-si	4r	.
.	.	4.e	Mil-	4.g#X	Mil-	4.ee	Mil-	4.b	Mil-
.	.	8e	-le	8g#	-le	8ee	-le	8b	-le
.	.	4e	bel-	4g#	bel-	4ee	bel-	4b	bel-
=31	=31	=31	=31	=31	=31	=31	=31	=31	=31
0r	.	4a	-lez-	4a	-lez-	4ee	-lez-	4cc#X	-lez-
.	.	4d	-ze	4a	-ze	4ff#X	-ze	4dd	-ze
.	.	2g	tue	2.b	tue	2.gg	tue	2dd	tue
.	.	2e	con	.	.	.	.	2g	con
.	.	.	.	4b	con	4ee	con	.	.
.	.	4c	oc-	4cc	oc-	4ee	oc-	4g	oc-
.	.	4G	-chi	4b	-chi	4dd	-chi	4g	-chi
=32	=32	=32	=32	=32	=32	=32	=32	=32	=32
2r	.	2d	mil-	2a	mil-	2dd	mil-	2f#X	mil-
4r	.	4G	-le,	4b	-le,	4dd	-le,	4g	-le,
4.G	Mil-	4.d	Mil-	4.b	Mil-	4.dd	Mil-	4.gg	<Mil-
8G	-le	8d	-le	8b	-le	8dd	-le	8gg	-le
4G	bel-	4d	bel-	4b	bel-	4dd	bel-	4gg	bel-
4d	-lez-	4d	-lez-	4a	-lez-	4dd	-lez-	4ff#X	-lez-
4G	-ze	4d	-ze	4b	-ze	4dd	-ze	4gg	-ze
=33	=33	=33	=33	=33	=33	=33	=33	=33	=33
2c	tue	2e	tue	2.cc	tue	2g	tue	2.ee	tue
2A	con	2c	con	.	.	2cc	con	.	.
.	.	.	.	4a	con	.	.	4ee	con
2F	oc-	2.c	oc-	2a	oc-	4cc	oc-	2ff	oc-
.	.	.	.	.	.	4a	-chi	.	.
2C	-chi	.	.	2g	-chi	[2cc	mil-	2ee	-chi
.	.	4c	-chi	.	.	.	.	.	.
=34	=34	=34	=34	=34	=34	=34	=34	=34	=34
1G	mil-	1d	mil-	1g	mil-	4cc]	.	1dd	mil-
.	.	.	.	.	.	8bL	.	.	.
.	.	.	.	.	.	8aJ	.	.	.
.	.	.	.	.	.	2b	.	.	.
[1C	-le.	[1c	-le.	[1g	-le.	[1cc	-le.	[1ee	-le.>
=35	=35	=35	=35	=35	=35	=35	=35	=35	=35
0C]	.	0c]	.	0g]	.	0cc]	.	0ee]	.
==	==	==	==	==	==	==	==	==	==
*-	*-	*-	*-	*-	*-	*-	*-	*-	*-
!!!system-decoration: [(s1)(s2)(s3)(s4)(s5)]
!!!RDF**kern: i = editorial accidental
!!!RDF**kern: l = terminal long
!!!ENC: Emiliano Ricciardi
!!!END: 2017/11
!!!EED: Deutsch, Catherine
!!!EEV: 2018/07/07
!!!YEC: Copyright 2018 Emiliano Ricciardi, All Rights Reserved
!!!ONB: Translated from MusicXML on 2018/07/07 and edited by Craig Stuart Sapp
